assets/images/afrikons/wifi.svg

<svg viewBox="0 0 50 46.46" xmlns="http://www.w3.org/2000/svg"><g fill="#0a0a0a"><path d="m25 35.62a5.42 5.42 0 0 0 -5.42 5.38 5.27 5.27 0 0 0 .23 1.54l1.25 2.16a5.37 5.37 0 0 0 7.88 0l1.25-2.16a5.27 5.27 0 0 0 .23-1.54 5.42 5.42 0 0 0 -5.42-5.38z"/><path d="m12 29 2.53 4.39a13.92 13.92 0 0 1 21 0l2.47-4.39a18.79 18.79 0 0 0 -26 0z"/><path d="m6 18.57 2.4 4.25a26.37 26.37 0 0 1 33.2 0l2.45-4.25a31.2 31.2 0 0 0 -38.1 0z"/><path d="m25 0a41.8 41.8 0 0 0 -25 8.27l2.45 4.24a37.06 37.06 0 0 1 45.1 0l2.45-4.24a41.8 41.8 0 0 0 -25-8.27z"/></g></svg>

<svg xmlns="http://www.w3.org/2000/svg" viewBox="0 0 50 46.46"><defs><style>.cls-1{fill:#0a0a0a;}</style></defs><title>wifi</title><g id="Layer_2" data-name="Layer 2"><g id="Layer_1-2" data-name="Layer 1"><path class="cls-1" d="M25,35.62A5.42,5.42,0,0,0,19.58,41a5.27,5.27,0,0,0,.23,1.54l1.25,2.16a5.37,5.37,0,0,0,7.88,0l1.25-2.16A5.27,5.27,0,0,0,30.42,41,5.42,5.42,0,0,0,25,35.62Z"/><path class="cls-1" d="M12,29l2.53,4.39a13.92,13.92,0,0,1,21,0L38,29A18.79,18.79,0,0,0,12,29Z"/><path class="cls-1" d="M6,18.57,8.4,22.82a26.37,26.37,0,0,1,33.2,0l2.45-4.25a31.2,31.2,0,0,0-38.1,0Z"/><path class="cls-1" d="M25,0A41.8,41.8,0,0,0,0,8.27l2.45,4.24a37.06,37.06,0,0,1,45.1,0L50,8.27A41.8,41.8,0,0,0,25,0Z"/></g></g></svg>
